X:23
T:Seige of Belgrade. Tho24CDs1792.23, The
M:6/8
Q:3/8=108
C:"95"
L:1/8
W: Change sides & back again .|
W: Right hands half round & back again :|
W: Lead down the middle up again & cast off :|.
W: Right and Left :|
B:Thompson 24 CDs 1792
Z:Village Music Project, Anne Wride, 2017
K:A
|:E|EAA ABc|ddd d2f|ecA AGA|BGE E2 E|
EAA ABc|ddd d2f|edc BAG|A3-A2:|
|: (c/d/)|eee ega|eee ega|ecA AGA|BGE E2 (c/d/)|
eee ega|eee ega|edc BAG|A3 A,3:|

